images/master-work.svg

<svg width="49" height="48" viewBox="0 0 49 48" fill="none" xmlns="http://www.w3.org/2000/svg">
<g clip-path="url(#clip0_4_50)">
<path d="M24.0176 41.4661C33.6999 41.4661 41.5483 33.7215 41.5483 24.1685C41.5483 14.6155 33.6999 6.87183 24.0176 6.87183C14.3353 6.87183 6.48581 14.6155 6.48581 24.1685C6.48581 33.7215 14.3353 41.4651 24.0176 41.4651V41.4661Z" fill="#607987" fill-opacity="0.1"/>
<path d="M33.3766 21.2239L27.4814 20.3785L24.8443 15.1083C24.7672 14.955 24.6489 14.8263 24.5027 14.7365C24.3565 14.6467 24.1881 14.5994 24.0166 14.5999C23.6659 14.5999 23.3446 14.7968 23.1898 15.1073L20.5527 20.3785L14.6576 21.2239C13.9023 21.3316 13.5996 22.2505 14.1462 22.7765L18.4123 26.879L17.4053 32.6723C17.276 33.4149 18.0675 33.983 18.7444 33.6323L24.0166 30.8973L29.2897 33.6323C29.9627 33.9811 30.7591 33.4168 30.6288 32.6723L29.6218 26.879L33.8879 22.7765C34.4345 22.2514 34.1328 21.3326 33.3766 21.2239ZM27.9859 25.9092C27.8791 26.0117 27.7992 26.1388 27.7531 26.2794C27.7069 26.4199 27.6961 26.5697 27.7214 26.7154L28.4943 31.1628L24.4466 29.0635C24.3139 28.9948 24.1665 28.959 24.0171 28.959C23.8676 28.959 23.7203 28.9948 23.5875 29.0635L19.5398 31.1628L20.3137 26.7154C20.3388 26.5695 20.3276 26.4197 20.2811 26.2791C20.2347 26.1385 20.1544 26.0115 20.0473 25.9092L16.7725 22.7599L21.2982 22.1114C21.4457 22.0908 21.586 22.0348 21.7072 21.9481C21.8283 21.8614 21.9266 21.7467 21.9937 21.6137L24.0166 17.568L26.0404 21.6137C26.1074 21.7467 26.2057 21.8615 26.3269 21.9482C26.448 22.0349 26.5884 22.0909 26.7359 22.1114L31.2616 22.7608L27.9859 25.9092Z" fill="#4E6575"/>
<path d="M47.5454 24.1695C47.5454 23.3603 47.1644 22.6677 46.8284 22.0565C46.2661 21.0338 46.2455 20.9427 46.5051 19.7603C46.654 19.0893 46.8215 18.3272 46.5991 17.5709C46.2171 16.2749 44.8868 15.5696 44.5508 14.8379C44.208 14.0895 44.541 12.6308 43.8142 11.5063C43.0844 10.3768 41.6042 10.0682 41.0752 9.45892C40.5423 8.84765 40.4453 7.34692 39.4295 6.46921C38.4107 5.58855 36.9071 5.70806 36.2223 5.26921C35.5405 4.83231 35.0292 3.41974 33.7969 2.85843C33.069 2.52635 32.2834 2.58316 31.5898 2.63312C30.3947 2.71933 30.3134 2.69386 29.3691 1.98855C28.8088 1.57027 28.174 1.09516 27.3658 0.979572C26.5792 0.868879 25.8465 1.14218 25.2 1.38414C24.0695 1.80537 23.9657 1.80537 22.8352 1.38414C22.1887 1.14218 21.455 0.868879 20.6684 0.980552C19.8612 1.09516 19.2254 1.57027 18.6651 1.98953C17.7227 2.69288 17.6404 2.71933 16.4444 2.63312C15.7508 2.58316 14.9652 2.52635 14.2373 2.85843C13.5026 3.19345 13.0305 3.82431 12.6132 4.3817C11.903 5.3319 11.8275 5.3799 10.6638 5.63165C9.98297 5.77859 9.21204 5.94512 8.60567 6.46921C7.9993 6.99231 7.72501 7.727 7.48306 8.37647C7.06673 9.49223 7.00599 9.56178 5.96175 10.126C5.3495 10.4571 4.65497 10.8323 4.22003 11.5063C3.49318 12.6299 3.82624 14.0924 3.48338 14.8369C3.14738 15.5686 1.81612 16.2779 1.43603 17.5699C1.06085 18.8434 1.79359 20.158 1.67701 20.973C1.56534 21.7567 0.48877 22.8196 0.48877 24.1685C0.48877 25.5203 1.56436 26.5792 1.67701 27.3649C1.79457 28.1877 1.05987 29.4906 1.43506 30.767C1.8171 32.063 3.14738 32.7683 3.48338 33.5001C3.82624 34.2475 3.49318 35.7071 4.22003 36.8317C4.94983 37.9611 6.42999 38.2697 6.95897 38.879C7.49187 39.4903 7.58885 40.991 8.60469 41.8687C9.62346 42.7494 11.1271 42.6299 11.8119 43.0687C12.4937 43.5056 13.005 44.9182 14.2373 45.4795C15.4589 46.0359 16.8724 45.501 17.6561 45.7303C18.4251 45.9546 19.3195 47.1663 20.6684 47.3574C21.4305 47.4651 22.1299 47.2173 22.8352 46.9538C23.9657 46.5326 24.0685 46.5326 25.199 46.9538C25.8455 47.1957 26.5792 47.469 27.3658 47.3574C28.7137 47.1663 29.614 45.9526 30.3791 45.7303C31.1657 45.5001 32.5724 46.0379 33.7978 45.4795C35.0311 44.9172 35.5415 43.5056 36.2223 43.0697C36.9051 42.6308 38.4117 42.7474 39.4285 41.8697C40.4453 40.991 40.5433 39.4893 41.0742 38.878C41.6062 38.2687 43.0834 37.9621 43.8142 36.8317C44.541 35.7081 44.2089 34.2455 44.5508 33.501C44.8868 32.7693 46.2181 32.061 46.5982 30.768C46.9733 29.4945 46.2406 28.1799 46.3572 27.3649C46.4689 26.5812 47.5454 25.5183 47.5454 24.1695ZM44.5293 27.1112C44.3578 28.3141 45.021 29.6013 44.8271 30.2596C44.6262 30.9414 43.3773 31.6447 42.8698 32.7497C42.3575 33.8645 42.6396 35.2643 42.2586 35.853C41.8765 36.4437 40.4786 36.7699 39.6754 37.6917C38.8711 38.6155 38.7457 40.0388 38.2128 40.4992C37.6878 40.9528 36.2488 40.8813 35.2163 41.5425C34.1906 42.2008 33.6627 43.536 33.023 43.8269C32.3941 44.113 31.0413 43.6379 29.855 43.9837C28.6942 44.3236 27.8017 45.456 27.1023 45.5559C26.4342 45.6519 25.2538 44.8143 24.0166 44.8143C22.7696 44.8143 21.6068 45.6529 20.9309 45.5559C20.5959 45.5079 20.1991 45.2111 19.7789 44.8976C18.8483 44.2021 18.2821 43.8504 17.1193 43.8504C16.3023 43.8504 15.452 44.0277 15.0112 43.8269C14.3706 43.535 13.8465 42.2018 12.8169 41.5425C11.7854 40.8803 10.3474 40.9548 9.82134 40.4992C9.28648 40.0379 9.16502 38.6184 8.35881 37.6917C7.55555 36.769 6.15865 36.4447 5.77563 35.853C5.39652 35.2672 5.67473 33.8605 5.16436 32.7497C4.65693 31.6447 3.40795 30.9423 3.20714 30.2596C3.01318 29.5983 3.67734 28.3229 3.50395 27.1102C3.3335 25.9131 2.33432 24.8924 2.33432 24.1695C2.33432 23.4455 3.3335 22.4258 3.50395 21.2277C3.67636 20.0238 3.01416 18.7366 3.20714 18.0783C3.40795 17.3966 4.65693 16.6932 5.16436 15.5882C5.67669 14.4735 5.39457 13.0746 5.77563 12.4849C6.15767 11.8942 7.55555 11.569 8.35881 10.6462C9.16306 9.72243 9.28844 8.29908 9.82134 7.83867C10.3464 7.38512 11.7854 7.45761 12.8179 6.79541C13.8435 6.13712 14.3715 4.80292 15.0112 4.511C15.6362 4.22692 16.9978 4.69908 18.1792 4.35427C19.34 4.01533 20.2324 2.88194 20.9319 2.783C21.6039 2.687 22.7784 3.52357 24.0176 3.52357C25.2617 3.52357 26.4274 2.68602 27.1033 2.783C27.8115 2.88292 28.6785 4.01043 29.856 4.35427C31.0315 4.69712 32.399 4.22692 33.024 4.511C33.6636 4.80292 34.1877 6.13614 35.2163 6.79541C36.2488 7.45761 37.6868 7.38414 38.2138 7.83867C38.7477 8.30006 38.8682 9.71949 39.6754 10.6462C40.4786 11.5699 41.8765 11.8932 42.2586 12.4849C42.6377 13.0707 42.3595 14.4774 42.8698 15.5882C43.3773 16.6932 44.6253 17.3966 44.8271 18.0783C45.021 18.7396 44.3568 20.015 44.5302 21.2277C44.7007 22.4248 45.6999 23.4455 45.6999 24.1695C45.6999 24.8924 44.7007 25.9121 44.5293 27.1112Z" fill="#4E6575"/>
</g>
<defs>
<clipPath id="clip0_4_50">
<rect width="48" height="48" fill="white" transform="translate(0.380005)"/>
</clipPath>
</defs>
</svg>

<svg xmlns="http://www.w3.org/2000/svg" width="49" height="48" fill="none"><g clip-path="url(#a)"><path fill="#607987" fill-opacity=".1" d="M24.018 41.466c9.682 0 17.53-7.745 17.53-17.297 0-9.553-7.848-17.297-17.53-17.297-9.683 0-17.532 7.744-17.532 17.297 0 9.552 7.85 17.296 17.532 17.296v.001Z"/><path fill="#4E6575" d="m33.377 21.224-5.896-.846-2.637-5.27a.923.923 0 0 0-.827-.508.923.923 0 0 0-.827.507l-2.637 5.271-5.895.846c-.756.108-1.058 1.026-.512 1.552l4.266 4.103-1.007 5.793c-.129.743.662 1.311 1.34.96l5.272-2.735 5.273 2.735c.673.35 1.47-.215 1.339-.96l-1.007-5.793 4.266-4.103c.547-.525.245-1.443-.511-1.552Zm-5.391 4.685a.903.903 0 0 0-.265.806l.773 4.448-4.047-2.1a.934.934 0 0 0-.86 0l-4.047 2.1.774-4.448a.902.902 0 0 0-.267-.806l-3.274-3.15 4.525-.648a.922.922 0 0 0 .696-.497l2.023-4.046 2.023 4.046a.92.92 0 0 0 .696.497l4.526.65-3.276 3.148Z"/><path fill="#4E6575" d="M47.545 24.17c0-.81-.38-1.502-.717-2.114-.562-1.022-.583-1.113-.323-2.296.149-.67.316-1.433.094-2.19-.382-1.295-1.712-2-2.048-2.732-.343-.748-.01-2.207-.737-3.332-.73-1.13-2.21-1.438-2.739-2.047-.533-.611-.63-2.112-1.646-2.99-1.018-.88-2.522-.76-3.207-1.2-.681-.437-1.193-1.85-2.425-2.41-.728-.333-1.514-.276-2.207-.226-1.195.086-1.277.06-2.22-.644-.561-.419-1.196-.894-2.004-1.01-.787-.11-1.52.163-2.166.405-1.13.421-1.234.421-2.365 0-.646-.242-1.38-.515-2.167-.403-.807.114-1.443.59-2.003 1.009-.942.703-1.025.73-2.22.643-.694-.05-1.48-.107-2.208.225-.734.335-1.207.966-1.624 1.524-.71.95-.785.998-1.95 1.25-.68.147-1.451.313-2.057.837-.607.523-.881 1.258-1.123 1.907-.416 1.116-.477 1.186-1.521 1.75-.612.331-1.307.706-1.742 1.38-.727 1.124-.394 2.586-.737 3.33-.336.733-1.667 1.442-2.047 2.734-.375 1.273.358 2.588.241 3.403-.112.784-1.188 1.847-1.188 3.196 0 1.351 1.075 2.41 1.188 3.196.118.823-.617 2.126-.242 3.402.382 1.296 1.712 2.001 2.048 2.733.343.748.01 2.207.737 3.332.73 1.13 2.21 1.438 2.739 2.047.533.611.63 2.112 1.646 2.99 1.018.88 2.522.76 3.207 1.2.682.437 1.193 1.85 2.425 2.41 1.222.557 2.635.022 3.42.251.768.225 1.663 1.436 3.011 1.627.762.108 1.462-.14 2.167-.403 1.13-.421 1.233-.421 2.364 0 .646.242 1.38.515 2.167.403 1.348-.19 2.248-1.404 3.013-1.627.787-.23 2.193.308 3.419-.25 1.233-.563 1.743-1.974 2.424-2.41.683-.44 2.19-.323 3.206-1.2 1.017-.879 1.115-2.38 1.646-2.992.532-.61 2.01-.916 2.74-2.046.727-1.124.395-2.587.737-3.331.336-.732 1.667-1.44 2.047-2.733.375-1.274-.357-2.588-.24-3.403.11-.784 1.187-1.847 1.187-3.195ZM44.53 27.11c-.171 1.203.492 2.49.298 3.149-.2.681-1.45 1.385-1.957 2.49-.512 1.114-.23 2.514-.611 3.103-.383.59-1.78.917-2.584 1.839-.804.923-.93 2.347-1.462 2.807-.525.454-1.964.382-2.997 1.043-1.025.659-1.553 1.994-2.193 2.285-.629.286-1.982-.19-3.168.157-1.16.34-2.053 1.472-2.753 1.572-.668.096-1.848-.742-3.085-.742-1.247 0-2.41.839-3.086.742-.335-.048-.732-.345-1.152-.658-.93-.696-1.497-1.048-2.66-1.048-.817 0-1.667.178-2.108-.023-.64-.292-1.164-1.625-2.194-2.285-1.032-.662-2.47-.587-2.996-1.043-.535-.461-.656-1.88-1.462-2.807-.803-.923-2.2-1.247-2.583-1.839-.38-.586-.101-1.992-.612-3.103-.507-1.105-1.756-1.808-1.957-2.49-.194-.662.47-1.937.297-3.15-.17-1.197-1.17-2.218-1.17-2.94 0-.725 1-1.744 1.17-2.942.172-1.204-.49-2.491-.297-3.15.201-.681 1.45-1.385 1.957-2.49.513-1.114.23-2.513.612-3.103.382-.59 1.78-.916 2.583-1.839.804-.924.93-2.347 1.462-2.807.525-.454 1.964-.381 2.997-1.044 1.026-.658 1.553-1.992 2.193-2.284.625-.284 1.987.188 3.168-.157 1.161-.339 2.053-1.472 2.753-1.571.672-.096 1.846.74 3.086.74 1.244 0 2.41-.837 3.085-.74.708.1 1.575 1.227 2.753 1.571 1.175.343 2.543-.127 3.168.157.64.292 1.164 1.625 2.192 2.284 1.033.663 2.47.59 2.998 1.044.534.461.654 1.88 1.461 2.807.804.924 2.202 1.247 2.584 1.839.379.586.1 1.992.61 3.103.508 1.105 1.756 1.809 1.958 2.49.194.662-.47 1.937-.297 3.15.17 1.197 1.17 2.217 1.17 2.941 0 .723-1 1.743-1.17 2.942Z"/></g><defs><clipPath id="a"><path fill="#fff" d="M.38 0h48v48h-48z"/></clipPath></defs></svg>
